src/components/Footer/LogoBountyManagerFooter.svg

<svg xmlns="http://www.w3.org/2000/svg" width="225" height="47" viewBox="0 0 225 47" fill="none">
  <path fill-rule="evenodd" clip-rule="evenodd" d="M80.6794 43.2495C82.8591 43.2495 84.8189 41.4978 84.8189 37.7885C84.8189 33.667 83.0391 31.9772 80.7794 31.9772C79.6795 31.9772 78.7997 32.513 78.0397 33.2343V28L76 29.0922V43.0228H78.0397V42.013C78.6197 42.6725 79.6195 43.2495 80.6794 43.2495ZM80.3995 33.9349C81.9193 33.9349 82.7592 35.1302 82.7592 37.8503C82.7592 40.1377 81.9593 41.2918 80.4794 41.2918C79.4396 41.2918 78.4797 40.5087 78.0197 39.8698V35.3156C78.5597 34.615 79.4196 33.9349 80.3995 33.9349Z" fill="#131313"/>
  <path fill-rule="evenodd" clip-rule="evenodd" d="M91.5181 43.2494C94.2177 43.2494 96.2575 41.1475 96.2575 37.5618C96.2575 34.1822 94.2177 31.9772 91.5781 31.9772C88.9384 31.9772 86.8987 34.244 86.8987 37.6236C86.8987 41.0032 88.8184 43.2494 91.5181 43.2494ZM91.4981 33.9967C93.1579 33.9967 94.1777 35.4186 94.1777 37.6236C94.1777 39.6019 93.1579 41.2299 91.5981 41.2299C90.0383 41.2299 88.9784 39.9316 88.9784 37.5618C88.9784 35.4186 89.9383 33.9967 91.4981 33.9967Z" fill="#131313"/>
  <path d="M107.156 43.0227H105.096V41.9924C104.576 42.7754 103.537 43.2494 102.457 43.2494C100.017 43.2494 98.7172 41.6008 98.7172 38.4067V32.2039H100.777V38.3242C100.777 40.5086 101.577 41.2917 102.937 41.2917C104.296 41.2917 105.096 40.2819 105.096 38.5303V32.2039H107.156V43.0227Z" fill="#131313"/>
  <path d="M118.635 43.0227H116.575V36.9023C116.575 34.718 115.775 33.9349 114.415 33.9349C113.055 33.9349 112.255 34.9446 112.255 36.6963V43.0227H110.196V32.2039H112.255V33.2342C112.775 32.4511 113.815 31.9772 114.895 31.9772C117.335 31.9772 118.635 33.6258 118.635 36.8199V43.0227Z" fill="#131313"/>
  <path d="M126.754 40.8796L126.514 42.7549C126.014 43.0434 125.314 43.2495 124.494 43.2495C123.034 43.2495 122.134 42.3221 122.134 40.385V34.141H120.634V32.2039H122.134V29.1128L124.154 28V32.2039H126.754V34.141H124.154V40.0141C124.154 41.0239 124.474 41.3124 125.234 41.3124C125.774 41.3124 126.374 41.1063 126.754 40.8796Z" fill="#131313"/>
  <path d="M138.092 32.2039L132.813 46.8351H130.633L132.153 42.8167L128.293 32.2039H130.553L132.273 37.5C132.573 38.4479 133.073 40.0553 133.193 40.6529C133.373 40.0141 133.813 38.4685 134.133 37.5412L135.913 32.2039H138.092V32.2039Z" fill="#131313"/>
  <path d="M159.93 43.0227H157.87V36.9023C157.87 34.718 157.21 33.9349 155.85 33.9349C154.49 33.9349 153.83 34.9446 153.83 36.6963V43.0227H151.771V36.9023C151.771 34.718 151.111 33.9349 149.751 33.9349C148.391 33.9349 147.731 34.9446 147.731 36.6963V43.0227H145.671V32.2039H147.731V33.2342C148.251 32.4511 149.151 31.9772 150.231 31.9772C151.651 31.9772 152.55 32.5336 153.11 33.5639C153.87 32.5954 154.69 31.9772 156.33 31.9772C158.77 31.9772 159.93 33.6258 159.93 36.8199V43.0227Z" fill="#131313"/>
  <path fill-rule="evenodd" clip-rule="evenodd" d="M168.908 43.0227H170.928V35.6041C170.928 33.1518 169.328 31.9772 166.989 31.9772C165.509 31.9772 164.389 32.3069 163.389 32.9457L164.189 34.5531C165.009 34.0791 165.849 33.8731 166.929 33.8731C168.208 33.8731 168.908 34.5325 168.908 35.7071V36.5108C168.328 36.2429 167.549 36.0986 166.569 36.0986C164.189 36.0986 162.389 37.1908 162.389 39.6019C162.389 42.2603 164.329 43.2494 166.029 43.2494C167.169 43.2494 168.188 42.693 168.908 41.9511V43.0227ZM168.908 38.4067V39.9522C168.428 40.6323 167.469 41.3329 166.369 41.3329C165.009 41.3329 164.349 40.6117 164.349 39.5401C164.349 38.5509 165.189 37.9327 166.509 37.9327C167.629 37.9327 168.348 38.1182 168.908 38.4067Z" fill="#131313"/>
  <path d="M182.327 43.0227H180.267V36.9023C180.267 34.718 179.467 33.9349 178.107 33.9349C176.747 33.9349 175.948 34.9446 175.948 36.6963V43.0227H173.888V32.2039H175.948V33.2342C176.467 32.4511 177.507 31.9772 178.587 31.9772C181.027 31.9772 182.327 33.6258 182.327 36.8199V43.0227Z" fill="#131313"/>
  <path fill-rule="evenodd" clip-rule="evenodd" d="M191.306 43.0227H193.325V35.6041C193.325 33.1518 191.726 31.9772 189.386 31.9772C187.906 31.9772 186.786 32.3069 185.786 32.9457L186.586 34.5531C187.406 34.0791 188.246 33.8731 189.326 33.8731C190.606 33.8731 191.306 34.5325 191.306 35.7071V36.5108C190.726 36.2429 189.946 36.0986 188.966 36.0986C186.586 36.0986 184.786 37.1908 184.786 39.6019C184.786 42.2603 186.726 43.2494 188.426 43.2494C189.566 43.2494 190.586 42.693 191.306 41.9511V43.0227ZM191.306 38.4067V39.9522C190.826 40.6323 189.866 41.3329 188.766 41.3329C187.406 41.3329 186.746 40.6117 186.746 39.5401C186.746 38.5509 187.586 37.9327 188.906 37.9327C190.026 37.9327 190.746 38.1182 191.306 38.4067Z" fill="#131313"/>
  <path fill-rule="evenodd" clip-rule="evenodd" d="M199.683 46.9999C203.483 46.8763 204.643 45.2895 204.643 41.9924V32.2039H202.583V33.2136C202.023 32.5542 201.023 31.9772 199.963 31.9772C197.803 31.9772 195.824 33.7288 195.824 37.4381C195.824 41.5596 197.623 43.2494 199.863 43.2494C200.963 43.2494 201.823 42.7136 202.583 41.9924V42.1778C202.583 44.424 201.943 45.2483 198.983 45.3926L199.683 46.9999ZM202.623 35.3568V39.911C202.083 40.6117 201.223 41.2917 200.243 41.2917C198.723 41.2917 197.883 40.0965 197.883 37.3763C197.883 35.0889 198.683 33.9349 200.163 33.9349C201.203 33.9349 202.163 34.718 202.623 35.3568Z" fill="#131313"/>
  <path fill-rule="evenodd" clip-rule="evenodd" d="M216.152 38.2475C216.173 38.0256 216.201 37.7258 216.201 37.3969C216.201 34.4707 214.761 31.9772 211.782 31.9772C209.062 31.9772 207.182 34.0379 207.182 37.6236C207.182 41.2093 209.262 43.2494 211.722 43.2494C213.321 43.2494 214.421 42.7342 215.341 41.8275L214.121 40.4674C213.421 41.0032 212.722 41.3329 211.842 41.3329C210.562 41.3329 209.422 40.4468 209.202 38.3655H216.141C216.144 38.3292 216.148 38.2897 216.152 38.2475ZM211.642 33.8937C213.341 33.8937 214.021 35.1301 214.121 36.6138H209.242C209.422 34.8828 210.262 33.8937 211.642 33.8937Z" fill="#131313"/>
  <path d="M225 32.4305L224.46 34.4501C224.02 34.2028 223.56 34.0585 222.88 34.0585C221.58 34.0585 220.821 35.0065 220.821 36.8405V43.0227H218.761V32.2039H220.821V33.2342C221.3 32.513 222.18 31.9772 223.22 31.9772C224.06 31.9772 224.58 32.142 225 32.4305Z" fill="#131313"/>
  <path fill-rule="evenodd" clip-rule="evenodd" d="M30.836 23.3746C31.2178 24.578 31.4604 25.8432 31.5422 27.1517C31.5637 27.487 31.5752 27.8253 31.5752 28.1664C31.5752 28.5076 31.5637 28.8459 31.5422 29.1812C31.4417 30.7876 31.0987 32.3307 30.5518 33.773C29.5687 36.3697 27.9239 38.6425 25.8227 40.3813C23.0929 42.6412 19.5953 44 15.7876 44C7.08288 44 0 36.8965 0 28.1664V2.91481L5.70506 0H5.74094V15.9415C8.53534 13.6169 12.0474 12.3329 15.7876 12.3329C20.5325 12.3329 24.7951 14.4416 27.69 17.7753C29.0922 19.3889 30.1744 21.2889 30.836 23.3746ZM15.7876 38.2423C21.1668 38.2423 25.5716 33.9788 25.8227 28.6472C25.8299 28.4874 25.8342 28.3277 25.8342 28.1664C25.8342 28.0052 25.8299 27.8455 25.8227 27.6857C25.5716 22.3527 21.3276 18.0906 15.7876 18.0906C10.2476 18.0906 5.74094 22.6117 5.74094 28.1664C5.74094 33.7211 10.4083 38.2423 15.7876 38.2423Z" fill="#131313"/>
  <path d="M67.9785 23.3746C67.5494 17.139 62.3552 12.199 56.0316 12.199C52.3847 12.199 49.1138 13.8428 46.915 16.4294C44.7162 13.8428 41.4453 12.199 37.7984 12.199C33.5529 12.199 29.817 14.4257 27.69 17.7753C29.0922 19.3888 30.1744 21.2889 30.836 23.3746C31.2178 24.5779 31.4604 25.8432 31.5422 27.1516V24.2109C31.5422 20.7491 34.3481 17.935 37.7984 17.935C41.2487 17.935 44.0546 20.7491 44.0546 24.2109V35.4599C44.0546 37.0447 45.3348 38.3287 46.915 38.3287C48.4952 38.3287 49.7754 37.0447 49.7754 35.4599V24.2109C49.7754 20.7491 52.5827 17.935 56.0316 17.935C59.4805 17.935 62.1112 20.5764 62.2806 23.887V43.3652H62.3495L68 40.4777L67.9785 23.3746Z" fill="#131313"/>
  <path opacity="0.5" d="M29.1137 15.9717C28.587 16.5259 28.1134 17.129 27.7015 17.7753C29.8199 20.2108 31.2106 23.2983 31.5307 26.6939V24.2454C31.5307 22.6261 32.1464 21.1464 33.1554 20.0323C32.023 18.4806 30.6581 17.1103 29.1137 15.9717Z" fill="#A3A3A3"/>
  <path d="M25.8343 28.1665C25.8343 28.3277 25.83 28.4875 25.8228 28.6472C25.5716 33.9788 21.1669 38.2424 15.7876 38.2424C10.4084 38.2424 5.74097 33.7212 5.74097 28.1665C5.74097 22.6118 10.2476 18.0906 15.7876 18.0906C21.3276 18.0906 25.5716 22.3527 25.8228 27.6857C25.83 27.8455 25.8343 28.0053 25.8343 28.1665Z" fill="#E6007A"/>
</svg>

<svg xmlns="http://www.w3.org/2000/svg" width="225" height="47" fill="none"><path fill="#131313" fill-rule="evenodd" d="M80.7 43.2c2.2 0 4.1-1.7 4.1-5.4 0-4.1-1.8-5.8-4-5.8a4 4 0 0 0-2.8 1.2V28l-2 1v14h2v-1q1 1.1 2.7 1.2m-.3-9.3q2.3-.1 2.4 4 0 3.4-2.3 3.4c-1 0-2-.8-2.5-1.4v-4.6q.9-1.2 2.4-1.4M91.5 43.2c2.7 0 4.8-2 4.8-5.6 0-3.4-2-5.6-4.7-5.6s-4.7 2.2-4.7 5.6 2 5.6 4.6 5.6m0-9.2q2.6.1 2.7 3.6c0 2-1 3.6-2.6 3.6q-2.5 0-2.6-3.6.1-3.5 2.5-3.6" clip-rule="evenodd"/><path fill="#131313" d="M107.2 43H105v-1q-1 1.2-2.6 1.2-3.8 0-3.8-4.8v-6.2h2v6.1q.1 3.2 2.2 3 2.2 0 2.2-2.8v-6.3h2zM118.6 43h-2V37q0-3.2-2.2-3-2 0-2.1 2.8V43h-2.1V32.2h2v1q1-1.1 2.7-1.2 3.6 0 3.7 4.8zM126.8 40.9l-.3 1.9a4 4 0 0 1-2 .4q-2.3 0-2.4-2.8V34h-1.5v-1.9h1.5v-3l2-1.2v4.2h2.7v2h-2.6V40q0 1.4 1 1.3t1.6-.4M138 32.2l-5.2 14.6h-2.2l1.6-4-4-10.6h2.4l1.7 5.3.9 3.2 1-3.2 1.7-5.3zM160 43h-2.1V37q0-3.2-2-3-2 0-2 2.8V43h-2.1V37q0-3.2-2-3-2 0-2 2.8V43h-2.1V32.2h2v1a3 3 0 0 1 2.5-1.2q2.2 0 3 1.6.9-1.5 3.1-1.6 3.7 0 3.6 4.8z"/><path fill="#131313" fill-rule="evenodd" d="M169 43h2v-7.4c0-2.4-1.7-3.6-4-3.6q-2.2 0-3.6 1l.8 1.6q1.1-.7 2.7-.7 2 0 2 1.8v.8q-1-.4-2.3-.4c-2.4 0-4.2 1-4.2 3.5 0 2.7 2 3.6 3.6 3.6a4 4 0 0 0 3-1.2zm0-4.6V40c-.6.6-1.5 1.3-2.6 1.3q-2 0-2-1.8 0-1.5 2.1-1.6a5 5 0 0 1 2.4.5" clip-rule="evenodd"/><path fill="#131313" d="M182.3 43h-2V37q0-3.2-2.2-3-2.2 0-2.2 2.8V43h-2V32.2h2v1q1-1.1 2.7-1.2 3.6 0 3.7 4.8z"/><path fill="#131313" fill-rule="evenodd" d="M191.3 43h2v-7.4q-.2-3.6-4-3.6-2 0-3.5 1l.8 1.6q1.1-.7 2.7-.7 2 0 2 1.8v.8q-1-.4-2.3-.4c-2.4 0-4.2 1-4.2 3.5 0 2.7 2 3.6 3.6 3.6a4 4 0 0 0 3-1.2zm0-4.6V40c-.5.6-1.4 1.3-2.5 1.3q-2 0-2-1.8 0-1.5 2.1-1.6a5 5 0 0 1 2.4.5M199.7 47c3.8-.1 5-1.7 5-5v-9.8h-2.1v1A4 4 0 0 0 200 32c-2.2 0-4.2 1.7-4.2 5.4 0 4.2 1.8 5.8 4 5.8q1.7 0 2.8-1.2v.2c0 2.2-.7 3-3.6 3.2zm3-11.6v4.5q-1 1.2-2.5 1.4-2.3.1-2.3-4 0-3.4 2.3-3.4c1 0 2 .8 2.4 1.5M216.2 38.2v-.8c0-3-1.4-5.4-4.4-5.4-2.7 0-4.6 2-4.6 5.6s2 5.6 4.5 5.6q2.3 0 3.6-1.4l-1.2-1.3q-1 .8-2.3.8c-1.2 0-2.4-.9-2.6-3h7m-4.6-4.3c1.7 0 2.4 1.2 2.5 2.7h-4.9q.3-2.6 2.4-2.7" clip-rule="evenodd"/><path fill="#131313" d="m225 32.4-.5 2a3 3 0 0 0-1.6-.3q-2 0-2 2.7V43h-2.1V32.2h2v1q.8-1.1 2.4-1.2a3 3 0 0 1 1.8.4"/><path fill="#131313" fill-rule="evenodd" d="M30.8 23.4a16 16 0 0 1-5 17A15.8 15.8 0 0 1 0 28.2V2.9L5.7 0v16q4.3-3.6 10-3.7a16 16 0 0 1 15.1 11m-15 14.8a10 10 0 0 0 0-20.1 10 10 0 0 0 0 20.1" clip-rule="evenodd"/><path fill="#131313" d="M68 23.4a12 12 0 0 0-21-7 12 12 0 0 0-19.3 1.4 16 16 0 0 1 3.8 9.4v-3a6.3 6.3 0 1 1 12.5 0v11.3a2.9 2.9 0 1 0 5.8 0V24.2c0-3.5 2.8-6.3 6.2-6.3s6.1 2.7 6.3 6v19.5l5.7-3z"/><path fill="#A3A3A3" d="M29.1 16q-.8.7-1.4 1.8 3.3 3.7 3.8 8.9v-2.5q0-2.4 1.7-4.2-1.8-2.3-4-4" opacity=".5"/><path fill="#E6007A" d="M25.8 28.2v.4a10 10 0 0 1-10 9.6c-5.4 0-10-4.5-10-10a10 10 0 0 1 10-10.1 10 10 0 0 1 10 10"/></svg>
